img/advantages/03.svg

<svg width="100" height="100" viewBox="0 0 100 100" fill="none" xmlns="http://www.w3.org/2000/svg">
<path d="M40.6677 82.9998L17.6677 85.9998L14.1677 69.4998L31.6677 66.4998L40.6677 82.9998Z" fill="#9EA3B5"/>
<path d="M90.6678 81.4998L69.6678 83.9998L66.1678 67.4998L81.6678 64.9998L90.6678 81.4998Z" fill="#9EA3B5"/>
<path d="M41.1935 72.8807L40.1676 73L48.6676 88L65.1676 87L61.7005 70.655C60.9376 71.3454 60.2019 71.9885 59.5052 72.5813C54.2011 77.0951 46.5993 77.1949 41.1935 72.8807Z" fill="#9EA3B5"/>
<path fill-rule="evenodd" clip-rule="evenodd" d="M56.2648 68.7735C63.9497 62.2338 76.1678 49.6413 76.1678 35.6818C76.1678 28.738 73.4285 22.0785 68.5525 17.1685C63.6766 12.2584 57.0634 9.5 50.1678 9.5C43.2721 9.5 36.6589 12.2584 31.783 17.1685C26.907 22.0785 24.1678 28.738 24.1678 35.6818C24.1678 49.6413 36.3858 62.2338 44.0707 68.7735C47.6269 71.7997 52.7086 71.7997 56.2648 68.7735ZM62.1678 35.5C62.1678 42.1274 56.7952 47.5 50.1678 47.5C43.5403 47.5 38.1678 42.1274 38.1678 35.5C38.1678 28.8726 43.5403 23.5 50.1678 23.5C56.7952 23.5 62.1678 28.8726 62.1678 35.5Z" fill="#9EA3B5"/>
</svg>

<svg width="100" height="100" viewBox="0 0 100 100" fill="none" xmlns="http://www.w3.org/2000/svg"><path d="M40.668 83l-23 3-3.5-16.5 17.5-3 9 16.5zm50-1.5l-21 2.5-3.5-16.5 15.5-2.5 9 16.5zm-49.474-8.62l-1.026.12 8.5 15 16.5-1L61.7 70.655a95.66 95.66 0 01-2.195 1.926c-5.304 4.514-12.906 4.614-18.312.3z" fill="#9EA3B5"/><path fill-rule="evenodd" clip-rule="evenodd" d="M56.265 68.773c7.685-6.54 19.903-19.132 19.903-33.091 0-6.944-2.74-13.604-7.616-18.514A25.908 25.908 0 0050.168 9.5a25.908 25.908 0 00-18.385 7.669 26.275 26.275 0 00-7.615 18.513c0 13.96 12.218 26.552 19.903 33.091 3.556 3.027 8.638 3.027 12.194 0zM62.168 35.5c0 6.627-5.373 12-12 12-6.628 0-12-5.373-12-12s5.372-12 12-12c6.627 0 12 5.373 12 12z" fill="#9EA3B5"/></svg>
